!!!COM: Louise Reichardt
!!!CNT: Deutsch
!!!TXO: Deutsch
!!!OTL: Kaeuzlein
!!!LYR: Aus des Knaben Wunderhorn (eds. von Arnim and Brentano)
!!!OPR: 
!!!OPS: No opus information available
!!!ONM: No. 4
!!!ENC: Ben Fuhrman
!!!YOR: Louise Reichardt: Songs
!!!YOR: New York, Da Capo Press, 1981
!!!ODT: 1800 - 1826
!!NB: Only vocal melody encoded.
!!NB: First instance of melodic material only encoded.
!!created: 2/17/10 1:57PM
!!proofed and posted: 2/17/10 1:57PM
**kern	**silbe
*clef G2	*
*k[b-e-]	*
*M6/8	*
*MM[Sanft flagend doch nicht zu langsam]	*
{8g	{Ich
=1	=1
4dd	ar-
8dd	-mes
(ccq	Ka2uz-
ddq	|
4ee-)	|
8cc	-lein
=2	=2
4.dd	klei-
4b	-ne,
8g	wo
=3	=3
4a	soll
8a	ich
4b-	flie-
8a	-gen
=4	=4
4.a}	aus.}
4r	.
{8d	{bey
=5	=5
4dd	Nacht
8dd	so
(ccq	gar
ddq	|
4ee-)	|
8cc	al-
=6	=6
4.dd	-lei-
4b-	-ne,
8dd	bringt
=7	=7
4ee-	mir
8dd	so
4cc	man-
8ff	-chen
=8	=8
4.dd}	Graus}
{8dd	{das
8cc	macht
8b-	der
=9	=9
4a	Eu-
8cc	-len
4b-	Un-
8g	-ge-
=10	=10
4.f#	-stalt
8f#	ihr
8g	Trau-
8a	-ern
=11	=11
4.b	man-
4.a	-nig-
=12	=12
4.g}	-falt.}
4.r	.
==	==
*-	*-
